X: 24765
T: Maeve On The Mountain
R: slip jig
M: 9/8
K: Gdorian
|:D2G {A}GFG B2G|DFG GFG F/G/FC|D2G {A}GFG Bcd|1 cc/c/c cBG BGF:|2 cc/c/c cBc dba||
|:g2g gfd cBF|G2G {A}GFG Bcd|cc/c/c cBG BGF|1 C2F FBA GBd:|2 C2F FBA G2F||

